X:19048
T:Xiraldilla (CT 282)
R:Xiraldilla
C:Tradicional
S:Msica Tradicional Asturiana, (C) Tello & Tito. Asturies, 2001.
S:http://pagina.de/MusTradAst <telloytito@asturies.org>
N:Xiraldilla, transcrita en Castandiellu, ayuntamiento de Morcn.
O:Castandiellu (Morcn)
A:Asturies
Z:Cancioneru de Torner 282
M:3/8
L:1/8
Q:3/8=88
W:El marinero en el mar
W:nunca me ha causado pena
W:y ahora s me la causa
W:porque mi amante navega.
K:Gm
G
|ddc|e2 d|(cA)G|ddc|e2 d|cAG|ccB|c2 A|^FGG|ccB|c2 A|^FG :||
